X: 1
T: Bombay Dog
M: 4/4
L: 1/8
R: reel
K: Ddor
|:DFAd f2ed|cdec A3 A|cdec ABcA|GAcG E2 FE|
DFAd f2ed|cdec A3 A|cdec ABcA|[1GFEF D2FE:|[2GFEF DFAd||
|:fdgd {g}a3a|agfa gfeg|ecfc {f}g3g|gfea gfea|
gAfA e3f|gagf efgf|efgf edcd|[1ADcD {c}d3d:|[2ADcD {c}d4||
